X:1
T:Title
%%score { ( 1 2 ) | ( 3 4 ) }
L:1/8
M:4/4
K:F
V:1 treble nm="Grand Piano"
V:2 treble 
V:3 bass 
V:4 bass 
V:1
 z4 z2[Q:1/4=100] z z/ G/ | AAAA A A2 F |[M:7/8] [DG][DF][DF] D F3 |[M:1/8] A | %4
[M:4/4] [EG][EG][EG][EG] [EG] [EG]2 [EG] |[M:3/4] Ac c>c c2 |[M:1/4] c>B |[M:4/4] AAAA A A2 F | %8
[M:7/8] [DG][DF][DF] [B,D] [A,CF]3 |[M:1/8] [CEG] | %10
[M:4/4] [CFA][CAc][CFA][A,F] [DFB] [DFB]2 [B,DG] |[M:3/4] [A,CF][CFA] [CFA]>[B,EG] [F,A,F]2 | %12
[M:1/4] cc |[M:4/4] A>A A2 B>B B2 |[M:3/4] A[CAc] [CAc]>[CFA] [CEG]2 |[M:1/4] [CGc][CGc] | %16
[M:17/16] [CFA]>[CFA][CFA]-<[CFA][DFB]>[DFB][Fd]3/2[Fd] |[M:3/4] [Fc][FA] [EA]>[EG] [A,F]2 | %18
[M:1/4] cc |[M:4/4] A>A A2 B>B B2 |[M:3/4] A[CAc] [CAc]>[CFA] [CEG]2 |[M:1/4] [CGc][CGc] | %22
[M:17/16] [CFA]>[CFA][CFA]-<[CFA][DFB]>[DFB][Fd]3/2[Fd] |[M:3/4] [Fc][FA] [EA]>[EG] [A,F]2 |] %24
V:2
 z4 z2 F2 | x8 |[M:7/8] x7 |[M:1/8] x |[M:4/4] x8 |[M:3/4] x6 |[M:1/4] x2 |[M:4/4] x8 |[M:7/8] x7 | %9
[M:1/8] x |[M:4/4] x8 |[M:3/4] x6 |[M:1/4] x2 |[M:4/4] x8 |[M:3/4] x6 |[M:1/4] x2 | %16
[M:17/16] x17/2 |[M:3/4] x6 |[M:1/4] x2 |[M:4/4] x8 |[M:3/4] x6 |[M:1/4] x2 |[M:17/16] x17/2 | %23
[M:3/4] x6 |] %24
V:3
 z4 z2 z z/ B,/ | [F,CF][F,CF][F,CF][F,CF] [F,CF] [F,CF]2 [F,A,C] | %2
[M:7/8] [B,,B,][B,,B,][B,,B,] [B,,B,] [F,A,C]3 |[M:1/8] [F,CF] | %4
[M:4/4] [C,C][C,C][C,C][C,C] [C,C] [C,C]2 [C,C] |[M:3/4] [F,CF][F,A,F] [F,A,F]>[F,A,F] [F,A,F]2 | %6
[M:1/4] [F,A,F]2 |[M:4/4] [F,CF][F,CF][F,CF][F,CF] [F,CF] [F,CF]2 [F,A,C] | %8
[M:7/8] [B,,B,][B,,B,][B,,B,] B,, F,3 |[M:1/8] C, |[M:4/4] F,F,F,F, B,, B,,2 B,, | %11
[M:3/4] C,C, C,>C, F,,2 |[M:1/4] [F,A,F][F,A,F] | %13
[M:4/4] [F,CF]>[F,CF] [F,CF]2 [G,CE]>[G,CE] [G,CE]2 |[M:3/4] [F,CF]F, F,>F, C,2 |[M:1/4] E,E, | %16
[M:17/16] F,>F,F,-<F,B,,>B,,[B,,B,]3/2[B,,B,] |[M:3/4] [C,A,][C,C] [C,C]>[C,B,] [F,,F,]2 | %18
[M:1/4] [F,A,F][F,A,F] |[M:4/4] [F,CF]>[F,CF] [F,CF]2 [G,CE]>[G,CE] [G,CE]2 | %20
[M:3/4] [F,CF]F, F,>F, C,2 |[M:1/4] E,E, |[M:17/16] F,>F,F,-<F,B,,>B,,[B,,B,]3/2[B,,B,] | %23
[M:3/4] [C,A,][C,C] [C,C]>[C,B,] [F,,F,]2 |] %24
V:4
 z4 z2 A,2 | x8 |[M:7/8] x7 |[M:1/8] x |[M:4/4] x8 |[M:3/4] x6 |[M:1/4] x2 |[M:4/4] x8 | %8
[M:7/8] x7 |[M:1/8] x |[M:4/4] x8 |[M:3/4] x6 |[M:1/4] x2 |[M:4/4] x8 |[M:3/4] x6 |[M:1/4] x2 | %16
[M:17/16] x17/2 |[M:3/4] x6 |[M:1/4] x2 |[M:4/4] x8 |[M:3/4] x6 |[M:1/4] x2 |[M:17/16] x17/2 | %23
[M:3/4] x6 |] %24

